X: 10098
T: The "S" CURVE'S REEL
C: Bob McQuillen 9 June 93
B: Bob's Note Book 10 #98
%R: reel
Z: 2020 John Chambers <jc:trillian.mit.edu>
M: C
L: 1/8
K: C	% and Am
|:CEGE FAGF | EGcB c2ef | g2ga gaba | g^fga gede |\
| CEGE FAGF | EGcB c2ef | g2ga gaba | gfed ecc2 :|
|:EGAc BGEG | A2Ac BGEG | Acec dcec | Aceg e2cd |\
| e2ag ecAc | d2ed cAGE | Acec eged | cABG A4  :|
%%begintext align
%% When you go (you _WILL_ go, you
%% know) to Seattle, WA, you will discover that one of the 237 Scenic Seattle Wonders is
%% the "S" Curves. These are 3 lucious lovelies who sing like nightingales -
%% 3-part harmonies of the 50's and 60's; and of course, they have Pat Spaeth doing
%% miracles on the piano to go with, and they are AWESOME! Talk about your Audio-Video
%% extravaganza! You'll see! And when you do, tell them I sent you, and give
%% them my love - Wendy Whittemore, Juanita Rmsay, Anita Anderson - Thanks for your
%% beautiful music - I can't wait to hear you again!
%%endtext
% Yes, he did spell it "lucious" (like the basketball player. ;-)

%%sep 1 1 500

%%sep 1 1 500

